X: 5043
T: Brian O'Lynn
R: jig
M: 6/8
K: Adorian
B|:cAd cAG|~E3 GAB|cBd cAG|EAA A2B|
cAd cAG|~E3 GAB|cde ged|1 cAA A2B:|2 cAA A2f||
|:~g3 ged|cAB cde|~a3 age|ed^c def|
gea ged|cAB cde|ged cAG|1 EAA A2f:|2 EAA A2B||

